X:4519
L:1/8
M:2/2
K:D
 de |"D" f2 fe d2 dB | ABAF D2 D2 |"A7" E2 EF G2 FE |"D" DEFG"^(A7)" A2 de |"D" f2 fe d2 dB | 
 ABAF D2 D2 |1"A7" E2 EF GECE |"D" D2 D2 D2 :|2"A7" E2 EF GABc |"D" d2 d2 d2 |:[K:A] cd | 
"A" efec efec | efec A2 A2 |"E7" B2 Bc d2 cB |"A" ABcd e2 cd |"A" efec efec | efec A2 A2 |1 
"E7" B2 Bc dBGB |"A" A2 A2 A2 :|

